public/bubbledivider.svg

<svg xmlns="http://www.w3.org/2000/svg" width="1164" height="505" fill="none"><g clip-path="url(#a)"><circle cx="177.961" cy="258.645" r="39.342" fill="#5699F0" stroke="#395BA7" stroke-width="9" transform="rotate(-41.943 177.961 258.645)"/><path fill="#5699F0" stroke="#395BA7" stroke-width="9" d="M333.892 224.827c13.998 15.578 12.718 39.554-2.86 53.552s-39.554 12.717-53.552-2.861-12.717-39.554 2.86-53.552 39.554-12.717 53.552 2.861Z"/><circle cx="237.221" cy="224.064" r="48.187" fill="#5699F0" stroke="#395BA7" stroke-width="9" transform="rotate(-41.943 237.221 224.064)"/><path fill="#395BA7" d="M244.903 190.463c.446-1.934-.76-3.882-2.728-4.136a36.42 36.42 0 0 0-37.914 21.287c-.808 1.813.228 3.857 2.111 4.483s3.898-.407 4.751-2.199a29.23 29.23 0 0 1 29.429-16.524c1.974.206 3.905-.977 4.351-2.911"/><circle cx="499.364" cy="228.959" r="36.966" fill="#5699F0" stroke="#395BA7" stroke-width="9" transform="rotate(-41.943 499.364 228.959)"/><circle cx="406.157" cy="212.53" r="70.5" fill="#5699F0" stroke="#395BA7" stroke-width="9" transform="rotate(-41.943 406.157 212.53)"/><circle cx="697.562" cy="210.577" r="35.945" fill="#5699F0" stroke="#395BA7" stroke-width="9" transform="rotate(-41.943 697.562 210.577)"/><circle cx="636.783" cy="220.515" r="45.993" fill="#5699F0" stroke="#395BA7" stroke-width="9" transform="rotate(-41.943 636.783 220.515)"/><circle cx="736.172" cy="163.738" r="32.412" fill="#5699F0" stroke="#395BA7" stroke-width="9" transform="rotate(-41.943 736.172 163.738)"/><circle cx="819.895" cy="227.643" r="81.773" fill="#5699F0" stroke="#395BA7" stroke-width="9" transform="rotate(-41.943 819.895 227.643)"/><circle cx="997.177" cy="174.217" r="66.412" fill="#5699F0" stroke="#395BA7" stroke-width="9" transform="rotate(-41.943 997.177 174.217)"/><circle cx="556.603" cy="196.368" r="51.404" fill="#5699F0" stroke="#395BA7" stroke-width="9" transform="rotate(-41.943 556.603 196.368)"/><circle cx="1118.9" cy="151.091" r="70.674" fill="#5699F0" stroke="#395BA7" stroke-width="9" transform="rotate(-41.943 1118.9 151.091)"/><circle cx="55.576" cy="242.654" r="94.139" fill="#5699F0" stroke="#395BA7" stroke-width="9" transform="rotate(-41.943 55.576 242.654)"/><path fill="#395BA7" d="M102.69 201.148c2.87-2.146 3.479-6.239 1.06-8.883a65.76 65.76 0 0 0-77.093-14.845c-3.228 1.557-4.183 5.583-2.315 8.642s5.85 3.984 9.114 2.505a52.785 52.785 0 0 1 59.842 11.523c2.482 2.585 6.522 3.205 9.392 1.058M451.965 204.429c2.78-.575 4.592-3.306 3.746-6.015a52.085 52.085 0 0 0-50.301-36.56c-2.839.032-4.877 2.599-4.565 5.42.311 2.822 2.856 4.823 5.694 4.86a41.81 41.81 0 0 1 39.046 28.379c.911 2.688 3.601 4.491 6.38 3.916M877.088 225.458c3.707-.767 6.123-4.408 4.995-8.022a69.46 69.46 0 0 0-67.081-48.754c-3.785.042-6.503 3.465-6.087 7.227.415 3.763 3.808 6.432 7.594 6.482a55.753 55.753 0 0 1 52.069 37.844c1.216 3.585 4.802 5.989 8.51 5.223"/><circle cx="884.629" cy="157.936" r="52.084" fill="#5699F0" stroke="#395BA7" stroke-width="9" transform="rotate(-41.943 884.629 157.936)"/><path fill="#395BA7" d="M880.975 120.625c-.542-2.393-2.931-3.916-5.26-3.141a45.03 45.03 0 0 0-30.789 44.065c.073 2.453 2.324 4.173 4.758 3.859s4.123-2.547 4.109-5.001a36.14 36.14 0 0 1 23.9-34.204c2.308-.831 3.823-3.185 3.282-5.578M567.733 231.289c.738 2.169 3.106 3.347 5.191 2.399a42.034 42.034 0 0 0 24.251-43.935c-.309-2.27-2.568-3.645-4.796-3.114s-3.577 2.769-3.323 5.046a33.74 33.74 0 0 1-18.825 34.103c-2.061.999-3.236 3.333-2.498 5.501M1164.61 156.022c3.39-.226 6-3.173 5.44-6.533a62.5 62.5 0 0 0-18.32-34.773 62.5 62.5 0 0 0-35.45-16.965c-3.38-.43-6.22 2.286-6.32 5.691-.09 3.405 2.6 6.203 5.97 6.714a50.15 50.15 0 0 1 27.25 13.448 50.23 50.23 0 0 1 14.49 26.712c.64 3.346 3.54 5.931 6.94 5.706"/><mask id="b" width="1239" height="267" x="-44" y="75" maskUnits="userSpaceOnUse" style="mask-type:alpha"><circle cx="177.961" cy="258.645" r="39.342" fill="#5699F0" stroke="#395BA7" stroke-width="9" transform="rotate(-41.943 177.961 258.645)"/><path fill="#5699F0" stroke="#395BA7" stroke-width="9" d="M333.892 224.827c13.998 15.578 12.718 39.554-2.86 53.552s-39.554 12.717-53.552-2.861-12.717-39.554 2.86-53.552 39.554-12.717 53.552 2.861Z"/><circle cx="237.221" cy="224.064" r="48.187" fill="#5699F0" stroke="#395BA7" stroke-width="9" transform="rotate(-41.943 237.221 224.064)"/><path fill="#395BA7" d="M244.903 190.463c.446-1.934-.76-3.882-2.728-4.136a36.42 36.42 0 0 0-37.914 21.287c-.808 1.813.228 3.857 2.111 4.483s3.898-.407 4.751-2.199a29.23 29.23 0 0 1 29.429-16.524c1.974.206 3.905-.977 4.351-2.911"/><circle cx="499.364" cy="228.959" r="36.966" fill="#5699F0" stroke="#395BA7" stroke-width="9" transform="rotate(-41.943 499.364 228.959)"/><circle cx="406.157" cy="212.53" r="70.5" fill="#5699F0" stroke="#395BA7" stroke-width="9" transform="rotate(-41.943 406.157 212.53)"/><circle cx="697.562" cy="210.577" r="35.945" fill="#5699F0" stroke="#395BA7" stroke-width="9" transform="rotate(-41.943 697.562 210.577)"/><circle cx="636.783" cy="220.515" r="45.993" fill="#5699F0" stroke="#395BA7" stroke-width="9" transform="rotate(-41.943 636.783 220.515)"/><circle cx="736.172" cy="163.738" r="32.412" fill="#5699F0" stroke="#395BA7" stroke-width="9" transform="rotate(-41.943 736.172 163.738)"/><circle cx="819.895" cy="227.643" r="81.773" fill="#5699F0" stroke="#395BA7" stroke-width="9" transform="rotate(-41.943 819.895 227.643)"/><circle cx="997.177" cy="174.217" r="66.412" fill="#5699F0" stroke="#395BA7" stroke-width="9" transform="rotate(-41.943 997.177 174.217)"/><circle cx="556.603" cy="196.368" r="51.404" fill="#5699F0" stroke="#395BA7" stroke-width="9" transform="rotate(-41.943 556.603 196.368)"/><circle cx="1118.9" cy="151.091" r="70.674" fill="#5699F0" stroke="#395BA7" stroke-width="9" transform="rotate(-41.943 1118.9 151.091)"/><circle cx="55.576" cy="242.654" r="94.139" fill="#5699F0" stroke="#395BA7" stroke-width="9" transform="rotate(-41.943 55.576 242.654)"/><path fill="#395BA7" d="M102.69 201.148c2.87-2.146 3.479-6.239 1.06-8.883a65.76 65.76 0 0 0-77.093-14.845c-3.228 1.557-4.183 5.583-2.315 8.642s5.85 3.984 9.114 2.505a52.785 52.785 0 0 1 59.842 11.523c2.482 2.585 6.522 3.205 9.392 1.058M451.965 204.429c2.78-.575 4.592-3.306 3.746-6.015a52.085 52.085 0 0 0-50.301-36.56c-2.839.032-4.877 2.599-4.565 5.42.311 2.822 2.856 4.823 5.694 4.86a41.81 41.81 0 0 1 39.046 28.379c.911 2.688 3.601 4.491 6.38 3.916M877.088 225.458c3.707-.767 6.123-4.408 4.995-8.022a69.46 69.46 0 0 0-67.081-48.754c-3.785.042-6.503 3.465-6.087 7.227.415 3.763 3.808 6.432 7.594 6.482a55.753 55.753 0 0 1 52.069 37.844c1.216 3.585 4.802 5.989 8.51 5.223"/><circle cx="884.629" cy="157.936" r="52.084" fill="#5699F0" stroke="#395BA7" stroke-width="9" transform="rotate(-41.943 884.629 157.936)"/><path fill="#395BA7" d="M880.975 120.625c-.542-2.393-2.931-3.916-5.26-3.141a45.03 45.03 0 0 0-30.789 44.065c.073 2.453 2.324 4.173 4.758 3.859s4.123-2.547 4.109-5.001a36.14 36.14 0 0 1 23.9-34.204c2.308-.831 3.823-3.185 3.282-5.578M1164.61 156.022c3.39-.226 6-3.173 5.44-6.533a62.5 62.5 0 0 0-18.32-34.773 62.5 62.5 0 0 0-35.45-16.965c-3.38-.43-6.22 2.286-6.32 5.691-.09 3.405 2.6 6.203 5.97 6.714a50.15 50.15 0 0 1 27.25 13.448 50.23 50.23 0 0 1 14.49 26.712c.64 3.346 3.54 5.931 6.94 5.706"/></mask><g mask="url(#b)"><path fill="url(#c)" fill-opacity=".5" d="M-100 48.169h1422v334H-100z" transform="rotate(-3.797 -100 48.169)"/></g></g><defs><linearGradient id="c" x1="593.5" x2="564.5" y1="131.169" y2="382.169" gradientUnits="userSpaceOnUse"><stop stop-color="#0DF"/><stop offset="1" stop-color="#190A56"/></linearGradient><clipPath id="a"><path fill="#fff" d="M0 0h1164v505H0z"/></clipPath></defs></svg>

<svg width="1164" height="505" viewBox="0 0 1164 505" fill="none" xmlns="http://www.w3.org/2000/svg">
<g clip-path="url(#clip0_1314_4617)">
<circle cx="177.961" cy="258.645" r="39.3424" transform="rotate(-41.9425 177.961 258.645)" fill="#5699F0" stroke="#395BA7" stroke-width="9"/>
<path d="M333.892 224.827C347.89 240.405 346.61 264.381 331.032 278.379C315.454 292.377 291.478 291.096 277.48 275.518C263.482 259.94 264.763 235.964 280.34 221.966C295.918 207.968 319.894 209.249 333.892 224.827Z" fill="#5699F0" stroke="#395BA7" stroke-width="9"/>
<circle cx="237.221" cy="224.064" r="48.1872" transform="rotate(-41.9425 237.221 224.064)" fill="#5699F0" stroke="#395BA7" stroke-width="9"/>
<path d="M244.903 190.463C245.349 188.529 244.143 186.581 242.175 186.327C234.438 185.331 226.55 186.842 219.693 190.692C212.836 194.542 207.438 200.49 204.261 207.614C203.453 209.427 204.489 211.471 206.372 212.097V212.097C208.256 212.723 210.27 211.69 211.123 209.898C213.705 204.465 217.916 199.933 223.212 196.96C228.507 193.986 234.57 192.751 240.552 193.374C242.526 193.58 244.457 192.397 244.903 190.463V190.463Z" fill="#395BA7"/>
<circle cx="499.364" cy="228.959" r="36.9656" transform="rotate(-41.9425 499.364 228.959)" fill="#5699F0" stroke="#395BA7" stroke-width="9"/>
<circle cx="406.157" cy="212.53" r="70.5" transform="rotate(-41.9425 406.157 212.53)" fill="#5699F0" stroke="#395BA7" stroke-width="9"/>
<circle cx="697.562" cy="210.577" r="35.9453" transform="rotate(-41.9425 697.562 210.577)" fill="#5699F0" stroke="#395BA7" stroke-width="9"/>
<circle cx="636.783" cy="220.515" r="45.9931" transform="rotate(-41.9425 636.783 220.515)" fill="#5699F0" stroke="#395BA7" stroke-width="9"/>
<circle cx="736.172" cy="163.738" r="32.4121" transform="rotate(-41.9425 736.172 163.738)" fill="#5699F0" stroke="#395BA7" stroke-width="9"/>
<circle cx="819.895" cy="227.643" r="81.7726" transform="rotate(-41.9425 819.895 227.643)" fill="#5699F0" stroke="#395BA7" stroke-width="9"/>
<circle cx="997.177" cy="174.217" r="66.4118" transform="rotate(-41.9425 997.177 174.217)" fill="#5699F0" stroke="#395BA7" stroke-width="9"/>
<circle cx="556.603" cy="196.368" r="51.4036" transform="rotate(-41.9425 556.603 196.368)" fill="#5699F0" stroke="#395BA7" stroke-width="9"/>
<circle cx="1118.9" cy="151.091" r="70.6743" transform="rotate(-41.9425 1118.9 151.091)" fill="#5699F0" stroke="#395BA7" stroke-width="9"/>
<circle cx="55.5759" cy="242.654" r="94.1394" transform="rotate(-41.9425 55.5759 242.654)" fill="#5699F0" stroke="#395BA7" stroke-width="9"/>
<path d="M102.69 201.148C105.56 199.002 106.169 194.909 103.75 192.265C94.2436 181.872 81.6044 174.76 67.6617 172.076C53.7191 169.391 39.3427 171.301 26.6571 177.42C23.4291 178.977 22.4745 183.003 24.3421 186.062V186.062C26.2097 189.121 30.1913 190.046 33.4561 188.567C43.3496 184.087 54.4398 182.747 65.2077 184.82C75.9757 186.893 85.775 192.257 93.2975 200.09C95.7799 202.675 99.8203 203.295 102.69 201.148V201.148Z" fill="#395BA7"/>
<path d="M451.965 204.429C454.745 203.854 456.557 201.123 455.711 198.414C452.387 187.765 445.712 178.416 436.615 171.804C427.518 165.192 416.565 161.729 405.41 161.854C402.571 161.886 400.533 164.453 400.845 167.274V167.274C401.156 170.096 403.701 172.097 406.539 172.134C415.141 172.247 423.545 175.013 430.571 180.119C437.597 185.226 442.823 192.366 445.585 200.513C446.496 203.201 449.186 205.004 451.965 204.429V204.429Z" fill="#395BA7"/>
<path d="M877.088 225.458C880.795 224.691 883.211 221.05 882.083 217.436C877.65 203.235 868.749 190.768 856.617 181.95C844.485 173.132 829.879 168.515 815.002 168.682C811.217 168.724 808.499 172.147 808.915 175.909V175.909C809.33 179.672 812.723 182.341 816.509 182.391C827.979 182.541 839.187 186.23 848.557 193.039C857.926 199.849 864.895 209.371 868.578 220.235C869.794 223.82 873.38 226.224 877.088 225.458V225.458Z" fill="#395BA7"/>
<circle cx="884.629" cy="157.936" r="52.0845" transform="rotate(-41.9425 884.629 157.936)" fill="#5699F0" stroke="#395BA7" stroke-width="9"/>
<path d="M880.975 120.625C880.433 118.232 878.044 116.709 875.715 117.484C866.565 120.529 858.592 126.448 853.023 134.418C847.455 142.387 844.638 151.909 844.926 161.549C844.999 164.002 847.25 165.722 849.684 165.408V165.408C852.118 165.093 853.807 162.861 853.793 160.407C853.752 152.971 856.007 145.662 860.308 139.508C864.608 133.353 870.696 128.722 877.693 126.203C880.001 125.372 881.516 123.018 880.975 120.625V120.625Z" fill="#395BA7"/>
<path d="M567.733 231.289C568.471 233.458 570.839 234.636 572.924 233.688C581.12 229.962 587.94 223.683 592.325 215.737C596.711 207.791 598.39 198.674 597.175 189.753C596.866 187.483 594.607 186.108 592.379 186.639V186.639C590.15 187.17 588.802 189.408 589.056 191.685C589.825 198.584 588.45 205.591 585.062 211.728C581.675 217.864 576.479 222.762 570.231 225.788C568.17 226.787 566.995 229.121 567.733 231.289V231.289Z" fill="#395BA7"/>
<path d="M1164.61 156.022C1168 155.796 1170.61 152.849 1170.05 149.489C1167.85 136.284 1161.46 124.073 1151.73 114.716C1142.01 105.359 1129.56 99.4396 1116.28 97.7513C1112.9 97.3217 1110.06 100.037 1109.96 103.442V103.442C1109.87 106.847 1112.56 109.645 1115.93 110.156C1126.14 111.706 1135.67 116.378 1143.18 123.604C1150.69 130.831 1155.72 140.178 1157.67 150.316C1158.31 153.662 1161.21 156.247 1164.61 156.022V156.022Z" fill="#395BA7"/>
<mask id="mask0_1314_4617" style="mask-type:alpha" maskUnits="userSpaceOnUse" x="-44" y="75" width="1239" height="267">
<circle cx="177.961" cy="258.645" r="39.3424" transform="rotate(-41.9425 177.961 258.645)" fill="#5699F0" stroke="#395BA7" stroke-width="9"/>
<path d="M333.892 224.827C347.89 240.405 346.61 264.381 331.032 278.379C315.454 292.377 291.478 291.096 277.48 275.518C263.482 259.94 264.763 235.964 280.34 221.966C295.918 207.968 319.894 209.249 333.892 224.827Z" fill="#5699F0" stroke="#395BA7" stroke-width="9"/>
<circle cx="237.221" cy="224.064" r="48.1872" transform="rotate(-41.9425 237.221 224.064)" fill="#5699F0" stroke="#395BA7" stroke-width="9"/>
<path d="M244.903 190.463C245.349 188.529 244.143 186.581 242.175 186.327C234.438 185.331 226.55 186.842 219.693 190.692C212.836 194.542 207.438 200.49 204.261 207.614C203.453 209.427 204.489 211.471 206.372 212.097V212.097C208.256 212.723 210.27 211.69 211.123 209.898C213.705 204.465 217.916 199.933 223.212 196.96C228.507 193.986 234.57 192.751 240.552 193.374C242.526 193.58 244.457 192.397 244.903 190.463V190.463Z" fill="#395BA7"/>
<circle cx="499.364" cy="228.959" r="36.9656" transform="rotate(-41.9425 499.364 228.959)" fill="#5699F0" stroke="#395BA7" stroke-width="9"/>
<circle cx="406.157" cy="212.53" r="70.5" transform="rotate(-41.9425 406.157 212.53)" fill="#5699F0" stroke="#395BA7" stroke-width="9"/>
<circle cx="697.562" cy="210.577" r="35.9453" transform="rotate(-41.9425 697.562 210.577)" fill="#5699F0" stroke="#395BA7" stroke-width="9"/>
<circle cx="636.783" cy="220.515" r="45.9931" transform="rotate(-41.9425 636.783 220.515)" fill="#5699F0" stroke="#395BA7" stroke-width="9"/>
<circle cx="736.172" cy="163.738" r="32.4121" transform="rotate(-41.9425 736.172 163.738)" fill="#5699F0" stroke="#395BA7" stroke-width="9"/>
<circle cx="819.895" cy="227.643" r="81.7726" transform="rotate(-41.9425 819.895 227.643)" fill="#5699F0" stroke="#395BA7" stroke-width="9"/>
<circle cx="997.177" cy="174.217" r="66.4118" transform="rotate(-41.9425 997.177 174.217)" fill="#5699F0" stroke="#395BA7" stroke-width="9"/>
<circle cx="556.603" cy="196.368" r="51.4036" transform="rotate(-41.9425 556.603 196.368)" fill="#5699F0" stroke="#395BA7" stroke-width="9"/>
<circle cx="1118.9" cy="151.091" r="70.6743" transform="rotate(-41.9425 1118.9 151.091)" fill="#5699F0" stroke="#395BA7" stroke-width="9"/>
<circle cx="55.5759" cy="242.654" r="94.1394" transform="rotate(-41.9425 55.5759 242.654)" fill="#5699F0" stroke="#395BA7" stroke-width="9"/>
<path d="M102.69 201.148C105.56 199.002 106.169 194.909 103.75 192.265C94.2436 181.872 81.6044 174.76 67.6617 172.076C53.7191 169.391 39.3427 171.301 26.6571 177.42C23.4291 178.977 22.4745 183.003 24.3421 186.062V186.062C26.2097 189.121 30.1913 190.046 33.4561 188.567C43.3496 184.087 54.4398 182.747 65.2077 184.82C75.9757 186.893 85.775 192.257 93.2975 200.09C95.7799 202.675 99.8203 203.295 102.69 201.148V201.148Z" fill="#395BA7"/>
<path d="M451.965 204.429C454.745 203.854 456.557 201.123 455.711 198.414C452.387 187.765 445.712 178.416 436.615 171.804C427.518 165.192 416.565 161.729 405.41 161.854C402.571 161.886 400.533 164.453 400.845 167.274V167.274C401.156 170.096 403.701 172.097 406.539 172.134C415.141 172.247 423.545 175.013 430.571 180.119C437.597 185.226 442.823 192.366 445.585 200.513C446.496 203.201 449.186 205.004 451.965 204.429V204.429Z" fill="#395BA7"/>
<path d="M877.088 225.458C880.795 224.691 883.211 221.05 882.083 217.436C877.65 203.235 868.749 190.768 856.617 181.95C844.485 173.132 829.879 168.515 815.002 168.682C811.217 168.724 808.499 172.147 808.915 175.909V175.909C809.33 179.672 812.723 182.341 816.509 182.391C827.979 182.541 839.187 186.23 848.557 193.039C857.926 199.849 864.895 209.371 868.578 220.235C869.794 223.82 873.38 226.224 877.088 225.458V225.458Z" fill="#395BA7"/>
<circle cx="884.629" cy="157.936" r="52.0845" transform="rotate(-41.9425 884.629 157.936)" fill="#5699F0" stroke="#395BA7" stroke-width="9"/>
<path d="M880.975 120.625C880.433 118.232 878.044 116.709 875.715 117.484C866.565 120.529 858.592 126.448 853.023 134.418C847.455 142.387 844.638 151.909 844.926 161.549C844.999 164.002 847.25 165.722 849.684 165.408V165.408C852.118 165.093 853.807 162.861 853.793 160.407C853.752 152.971 856.007 145.662 860.308 139.508C864.608 133.353 870.696 128.722 877.693 126.203C880.001 125.372 881.516 123.018 880.975 120.625V120.625Z" fill="#395BA7"/>
<path d="M1164.61 156.022C1168 155.796 1170.61 152.849 1170.05 149.489C1167.85 136.284 1161.46 124.073 1151.73 114.716C1142.01 105.359 1129.56 99.4396 1116.28 97.7513C1112.9 97.3217 1110.06 100.037 1109.96 103.442V103.442C1109.87 106.847 1112.56 109.645 1115.93 110.156C1126.14 111.706 1135.67 116.378 1143.18 123.604C1150.69 130.831 1155.72 140.178 1157.67 150.316C1158.31 153.662 1161.21 156.247 1164.61 156.022V156.022Z" fill="#395BA7"/>
</mask>
<g mask="url(#mask0_1314_4617)">
<rect x="-100" y="48.1689" width="1422" height="334" transform="rotate(-3.79708 -100 48.1689)" fill="url(#paint0_linear_1314_4617)" fill-opacity="0.5"/>
</g>
</g>
<defs>
<linearGradient id="paint0_linear_1314_4617" x1="593.5" y1="131.169" x2="564.5" y2="382.169" gradientUnits="userSpaceOnUse">
<stop stop-color="#00DDFF"/>
<stop offset="1" stop-color="#190A56"/>
</linearGradient>
<clipPath id="clip0_1314_4617">
<rect width="1164" height="505" fill="white"/>
</clipPath>
</defs>
</svg>
